icons/ppe_sanitizer_fill.svg

<svg width="48" height="48" viewBox="0 0 48 48" fill="none" xmlns="http://www.w3.org/2000/svg">
<path fill-rule="evenodd" clip-rule="evenodd" d="M12.3683 10.9961C12.6599 10.4858 13.2239 9.69614 13.9276 9.04805C14.6537 8.37919 15.3761 8 16.0001 8H23.0001V14H19.0001C17.8956 14 17.0001 14.8954 17.0001 16V19H16.0001C13.2387 19 11.0001 21.2386 11.0001 24V40C11.0001 41.1046 11.8956 42 13.0001 42H35.0001C36.1047 42 37.0001 41.1046 37.0001 40V24C37.0001 21.2386 34.7615 19 32.0001 19H31.0001V16C31.0001 14.8954 30.1047 14 29.0001 14H25.0001V8H33.0001V6H16.0001C14.624 6 13.4298 6.78748 12.5726 7.57695C11.6929 8.38719 11.0069 9.3475 10.6318 10.0039L12.3683 10.9961ZM18.0001 29H23.0001V24H25.0001V29H30.0001V31H25.0001V36H23.0001V31H18.0001V29Z" fill="black"/>
</svg>

<svg
  xmlns="http://www.w3.org/2000/svg"
  width="24"
  height="24"
  viewBox="0 0 24 24"
  fill="none"
  stroke="currentColor"
  stroke-width="2"
  stroke-linecap="round"
  stroke-linejoin="round"
>
  <path
    fill-rule="evenodd"
    d="M12.368 10.996c.292-.51.856-1.3 1.56-1.948C14.654 8.379 15.376 8 16 8h7v6h-4a2 2 0 0 0-2 2v3h-1a5 5 0 0 0-5 5v16a2 2 0 0 0 2 2h22a2 2 0 0 0 2-2V24a5 5 0 0 0-5-5h-1v-3a2 2 0 0 0-2-2h-4V8h8V6H16c-1.376 0-2.57.787-3.427 1.577a10.7 10.7 0 0 0-1.941 2.427zM18 29h5v-5h2v5h5v2h-5v5h-2v-5h-5z"
    clip-rule="evenodd"
  />
</svg>
